X: 1
T: The Mountain Top
R: reel
M: 4/4
L: 1/8
K: Gmin
|:FE|"Bb"DFBc d2cd|"Eb"edcB G2FE|"Bb"DFBc dBAB|gfdB "F7"c2FE|
"Bb"DFBc d2cd|"Eb"edcB G2FE|"Bb"DFBd "F7"cBAc|"Bb"B2d2 B2:|
|:Bc|dBAB GBFB|DFBc dBAB|gBfB "Eb"edcB|"Cm"GccB "F7"ABcA|
"Bb"dBAB GBFB|DFBc dBAB|gBfB "Eb"edcB|"F7"AFGA "Bb"B2:|


Tune 1966	Setting 15398

